app/component-library/components/Icons/Icon/assets/code-circle.svg

<svg width="24" height="24" viewBox="0 0 24 24" fill="none" xmlns="http://www.w3.org/2000/svg">
<path d="M12.2812 2C6.76125 2 2.28125 6.48 2.28125 12C2.28125 17.52 6.76125 22 12.2812 22C17.8012 22 22.2812 17.52 22.2812 12C22.2812 6.48 17.8012 2 12.2812 2ZM8.81125 13.47C9.10125 13.76 9.10125 14.24 8.81125 14.53C8.66125 14.68 8.47125 14.75 8.28125 14.75C8.09125 14.75 7.90125 14.68 7.75125 14.53L5.75125 12.53C5.46125 12.24 5.46125 11.76 5.75125 11.47L7.75125 9.47C8.04125 9.18 8.52125 9.18 8.81125 9.47C9.10125 9.76 9.10125 10.24 8.81125 10.53L7.34125 12L8.81125 13.47ZM13.9712 9.96L11.9712 14.63C11.8512 14.91 11.5712 15.08 11.2812 15.08C11.1812 15.08 11.0813 15.06 10.9913 15.02C10.6113 14.86 10.4312 14.42 10.6012 14.03L12.6012 9.36C12.7612 8.98 13.2013 8.8 13.5813 8.97C13.9613 9.14 14.1312 9.58 13.9712 9.96ZM18.8113 12.53L16.8113 14.53C16.6613 14.68 16.4712 14.75 16.2812 14.75C16.0913 14.75 15.9013 14.68 15.7513 14.53C15.4613 14.24 15.4613 13.76 15.7513 13.47L17.2213 12L15.7513 10.53C15.4613 10.24 15.4613 9.76 15.7513 9.47C16.0413 9.18 16.5213 9.18 16.8113 9.47L18.8113 11.47C19.1013 11.76 19.1013 12.24 18.8113 12.53Z" fill="currentColor"/>
</svg>

<svg xmlns="http://www.w3.org/2000/svg" width="24" height="24" viewBox="0 0 24 24" fill="none"><path d="M12.281 2c-5.52 0-10 4.48-10 10s4.48 10 10 10 10-4.48 10-10-4.48-10-10-10zm-3.47 11.47c.29.29.29.77 0 1.06-.15.15-.34.22-.53.22s-.38-.07-.53-.22l-2-2a.754.754 0 0 1 0-1.06l2-2c.29-.29.77-.29 1.06 0 .29.29.29.77 0 1.06L7.341 12l1.47 1.47zm5.16-3.51-2 4.67a.752.752 0 0 1-.98.39.745.745 0 0 1-.39-.99l2-4.67c.16-.38.6-.56.98-.39.38.17.55.61.39.99zm4.84 2.57-2 2c-.15.15-.34.22-.53.22s-.38-.07-.53-.22a.754.754 0 0 1 0-1.06l1.47-1.47-1.47-1.47a.754.754 0 0 1 0-1.06c.29-.29.77-.29 1.06 0l2 2c.29.29.29.77 0 1.06z" fill="currentColor"/></svg>
